X: 13
T: Steam-boat
M:4/4
R:reel
L:1/8
Z:added by Alf warnock alf0@rogers.com - www.alfwarnock.info/alfs
K:G
|:"G"g2gB d2d2|B2dB G2G2|B2BB B2B2|ddBc "D"A4|
"G"g2gB d2d2|B2dB G2G2|B2BB d2g2|"D"ecAF "G"G4:|
|: "G"G2Bc ddG2|"D"FGAB "D7"cBA2|"G"GABc "D"defg|"A"agfe "D7"d4|
"G"G2Bc ddG2|"D7"FGAB cBA2|"G"GABc defg|"C"ec"D7"AF "G"G4:|
% C:\aaa\EnglishCountry\ECD02.abc
